;FLAVOR:Marlin
;TIME:2790
;Filament used: 2.08451m
;Layer height: 0.2
;MINX:18.931
;MINY:40.2
;MINZ:0.2
;MAXX:55.211
;MAXY:76.48
;MAXZ:20
;Generated with Cura_SteamEngine 4.2.1
M140 S60
M105
M190 S60
M104 S200
M105
M109 S200
M82 ;absolute extrusion mode
M201 X500.00 Y500.00 Z100.00 E5000.00 ;Setup machine max acceleration
M203 X500.00 Y500.00 Z10.00 E50.00 ;Setup machine max feedrate
M204 P500.00 R1000.00 T500.00 ;Setup Print/Retract/Travel acceleration
M205 X8.00 Y8.00 Z0.40 E5.00 ;Setup Jerk
M220 S100 ;Reset Feedrate
M221 S100 ;Reset Flowrate

G28 ;Home

G92 E0 ;Reset Extruder
G1 Z2.0 F3000 ;Move Z Axis up
G1 X10.1 Y20 Z0.28 F5000.0 ;Move to start position
G1 X10.1 Y200.0 Z0.28 F1500.0 E15 ;Draw the first line
G1 X10.4 Y200.0 Z0.28 F5000.0 ;Move to side a little
G1 X10.4 Y20 Z0.28 F1500.0 E30 ;Draw the second line
G92 E0 ;Reset Extruder
G1 Z2.0 F3000 ;Move Z Axis up

G92 E0
G92 E0
G1 F2700 E-5
;LAYER_COUNT:100
;LAYER:0
M107
G0 F6000 X23.311 Y41.121 Z0.2
;TYPE:SKIRT
G1 F2700 E0
G1 F1200 X24.044 Y40.784 E0.02952
G1 X24.807 Y40.521 E0.05904
G1 X25.592 Y40.336 E0.08855
G1 X26.391 Y40.228 E0.11805
G1 X27.071 Y40.2 E0.14295
G1 X47.034 Y40.2 E0.87332
G1 X47.84 Y40.24 E0.90284
G1 X48.638 Y40.36 E0.93237
G1 X49.42 Y40.557 E0.96187
G1 X50.178 Y40.832 E0.99137
G1 X50.906 Y41.18 E1.02089
G1 X51.596 Y41.598 E1.05041
G1 X52.241 Y42.083 E1.07993
G1 X52.834 Y42.629 E1.10942
G1 X53.371 Y43.231 E1.13894
G1 X53.846 Y43.884 E1.16848
G1 X54.253 Y44.58 E1.19798
G1 X54.59 Y45.313 E1.2275
G1 X54.853 Y46.076 E1.25702
G1 X55.038 Y46.861 E1.28653
G1 X55.146 Y47.66 E1.31603
G1 X55.174 Y48.325 E1.34038
G1 X55.211 Y68.325 E2.0721
G1 X55.173 Y69.131 E2.10162
G1 X55.054 Y69.929 E2.13114
G1 X54.858 Y70.711 E2.16064
G1 X54.585 Y71.47 E2.19015
G1 X54.238 Y72.199 E2.21969
G1 X53.821 Y72.889 E2.24918
G1 X53.338 Y73.535 E2.27869
G1 X52.793 Y74.13 E2.30822
G1 X52.191 Y74.668 E2.33775
G1 X51.54 Y75.144 E2.36726
G1 X50.845 Y75.552 E2.39674
G1 X50.112 Y75.891 E2.42629
G1 X49.35 Y76.155 E2.4558
G1 X48.565 Y76.342 E2.48532
G1 X47.766 Y76.45 E2.51482
G1 X47.071 Y76.48 E2.54027
G1 X27.071 Y76.48 E3.27199
G1 X26.265 Y76.44 E3.30152
G1 X25.467 Y76.32 E3.33104
G1 X24.685 Y76.123 E3.36054
G1 X23.927 Y75.848 E3.39005
G1 X23.199 Y75.5 E3.41957
G1 X22.509 Y75.082 E3.44908
G1 X21.864 Y74.597 E3.47861
G1 X21.271 Y74.051 E3.5081
G1 X20.734 Y73.449 E3.53761
G1 X20.259 Y72.796 E3.56716
G1 X19.852 Y72.1 E3.59665
G1 X19.515 Y71.367 E3.62617
G1 X19.252 Y70.604 E3.6557
G1 X19.067 Y69.819 E3.6852
G1 X18.959 Y69.02 E3.7147
G1 X18.931 Y68.34 E3.7396
G1 X18.931 Y48.34 E4.47132
G1 X18.971 Y47.534 E4.50085
G1 X19.091 Y46.736 E4.53037
G1 X19.288 Y45.954 E4.55988
G1 X19.563 Y45.196 E4.58938
G1 X19.911 Y44.468 E4.6189
G1 X20.329 Y43.778 E4.64842
G1 X20.814 Y43.133 E4.67794
G1 X21.36 Y42.54 E4.70743
G1 X21.962 Y42.003 E4.73695
G1 X22.615 Y41.528 E4.76649
G1 X23.311 Y41.121 E4.79599
G0 F6000 X23.726 Y41.405
G1 F1200 X24.449 Y41.1 E4.8247
G1 X25.199 Y40.871 E4.85339
G1 X25.969 Y40.719 E4.8821
G1 X27.071 Y40.64 E4.92252
G1 X47.034 Y40.64 E5.65289
G1 X47.818 Y40.68 E5.68161
G1 X48.593 Y40.799 E5.7103
G1 X49.352 Y40.997 E5.739
G1 X50.087 Y41.271 E5.7677
G1 X50.791 Y41.619 E5.79643
G1 X51.455 Y42.036 E5.82511
G1 X52.074 Y42.519 E5.85384
G1 X52.64 Y43.062 E5.88254
G1 X53.148 Y43.66 E5.91124
G1 X53.593 Y44.306 E5.93994
G1 X53.969 Y44.995 E5.96866
G1 X54.274 Y45.718 E5.99737
G1 X54.503 Y46.468 E6.02606
G1 X54.655 Y47.238 E6.05477
G1 X54.734 Y48.326 E6.09468
G1 X54.771 Y68.326 E6.82641
G1 X54.732 Y69.109 E6.85509
G1 X54.614 Y69.885 E6.88381
G1 X54.418 Y70.645 E6.91252
G1 X54.145 Y71.38 E6.94121
G1 X53.799 Y72.085 E6.96994
G1 X53.383 Y72.75 E6.99864
G1 X52.902 Y73.369 E7.02732
G1 X52.36 Y73.936 E7.05602
G1 X51.763 Y74.446 E7.08474
G1 X51.117 Y74.891 E7.11344
G1 X50.429 Y75.269 E7.14216
G1 X49.707 Y75.575 E7.17085
G1 X48.957 Y75.806 E7.19957
G1 X48.187 Y75.959 E7.22829
G1 X47.071 Y76.04 E7.26923
G1 X27.071 Y76.04 E8.00095
G1 X26.287 Y76 E8.02967
G1 X25.512 Y75.881 E8.05836
G1 X24.753 Y75.683 E8.08705
G1 X24.018 Y75.409 E8.11575
G1 X23.314 Y75.061 E8.14448
G1 X22.65 Y74.644 E8.17317
G1 X22.031 Y74.161 E8.2019
G1 X21.465 Y73.618 E8.23059
G1 X20.957 Y73.02 E8.2593
G1 X20.512 Y72.374 E8.288
G1 X20.136 Y71.685 E8.31672
G1 X19.831 Y70.962 E8.34543
G1 X19.602 Y70.212 E8.37412
G1 X19.45 Y69.442 E8.40283
G1 X19.371 Y68.34 E8.44325
G1 X19.371 Y48.34 E9.17497
G1 X19.411 Y47.556 E9.2037
G1 X19.53 Y46.781 E9.23238
G1 X19.728 Y46.022 E9.26108
G1 X20.002 Y45.287 E9.28978
G1 X20.35 Y44.583 E9.31851
G1 X20.767 Y43.919 E9.3472
G1 X21.25 Y43.3 E9.37592
G1 X21.793 Y42.734 E9.40462
G1 X22.391 Y42.226 E9.43333
G1 X23.037 Y41.781 E9.46203
G1 X23.726 Y41.405 E9.49074
G0 F6000 X23.458 Y42.043
G1 F1200 X24.137 Y41.699 E9.51859
G1 X24.85 Y41.428 E9.5465
G1 X25.586 Y41.233 E9.57435
G1 X26.339 Y41.117 E9.60223
G1 X27.071 Y41.08 E9.62904
G1 X47.034 Y41.08 E10.35941
G1 X47.795 Y41.12 E10.38729
G1 X48.547 Y41.239 E10.41515
G1 X49.283 Y41.437 E10.44303
G1 X49.994 Y41.711 E10.47091
G1 X50.672 Y42.057 E10.49876
G1 X51.311 Y42.473 E10.52666
G1 X51.902 Y42.954 E10.55453
G1 X52.44 Y43.494 E10.58242
G1 X52.918 Y44.087 E10.61029
G1 X53.331 Y44.727 E10.63816
G1 X53.675 Y45.406 E10.666
G1 X53.946 Y46.119 E10.69391
G1 X54.141 Y46.855 E10.72177
G1 X54.257 Y47.608 E10.74964
G1 X54.294 Y48.327 E10.77598
G1 X54.331 Y68.327 E11.50771
G1 X54.292 Y69.087 E11.53555
G1 X54.174 Y69.84 E11.56343
G1 X53.978 Y70.576 E11.5913
G1 X53.706 Y71.288 E11.61919
G1 X53.36 Y71.967 E11.64707
G1 X52.946 Y72.606 E11.67492
G1 X52.466 Y73.198 E11.70281
G1 X51.927 Y73.737 E11.7307
G1 X51.335 Y74.216 E11.75856
G1 X50.696 Y74.63 E11.78641
G1 X50.017 Y74.975 E11.81428
G1 X49.305 Y75.248 E11.84218
G1 X48.569 Y75.444 E11.87004
G1 X47.816 Y75.562 E11.89793
G1 X47.071 Y75.6 E11.92522
G1 X27.071 Y75.6 E12.65694
G1 X26.31 Y75.56 E12.68482
G1 X25.558 Y75.441 E12.71268
G1 X24.822 Y75.243 E12.74056
G1 X24.111 Y74.969 E12.76844
G1 X23.433 Y74.623 E12.79629
G1 X22.794 Y74.207 E12.82419
G1 X22.203 Y73.726 E12.85206
G1 X21.665 Y73.186 E12.87995
G1 X21.187 Y72.593 E12.90782
G1 X20.774 Y71.953 E12.93569
G1 X20.43 Y71.274 E12.96353
G1 X20.159 Y70.561 E12.99144
G1 X19.964 Y69.825 E13.0193
G1 X19.848 Y69.072 E13.04717
G1 X19.811 Y68.34 E13.07399
G1 X19.811 Y48.34 E13.80571
G1 X19.851 Y47.579 E13.83359
G1 X19.97 Y46.827 E13.86145
G1 X20.168 Y46.091 E13.88933
G1 X20.442 Y45.38 E13.91721
G1 X20.788 Y44.702 E13.94506
G1 X21.204 Y44.063 E13.97295
G1 X21.685 Y43.472 E14.00083
G1 X22.225 Y42.934 E14.02872
G1 X22.818 Y42.456 E14.05659
G1 X23.458 Y42.043 E14.08445
G0 F6000 X23.876 Y42.315
G1 F1200 X24.546 Y42.005 E14.11146
G1 X25.246 Y41.769 E14.13849
G1 X25.967 Y41.61 E14.1655
G1 X26.701 Y41.53 E14.19251
G1 X27.071 Y41.52 E14.20606
G1 X47.034 Y41.52 E14.93643
G1 X47.771 Y41.56 E14.96343
G1 X48.5 Y41.679 E14.99045
G1 X49.211 Y41.877 E15.01746
G1 X49.897 Y42.15 E15.04447
G1 X50.55 Y42.496 E15.07151
G1 X51.161 Y42.91 E15.09851
G1 X51.724 Y43.388 E15.12553
G1 X52.232 Y43.924 E15.15255
G1 X52.678 Y44.512 E15.17955
G1 X53.059 Y45.145 E15.20658
G1 X53.369 Y45.815 E15.23359
G1 X53.605 Y46.515 E15.26062
G1 X53.764 Y47.236 E15.28763
G1 X53.854 Y48.327 E15.32768
G1 X53.891 Y68.327 E16.0594
G1 X53.852 Y69.065 E16.08644
G1 X53.734 Y69.794 E16.11346
G1 X53.538 Y70.505 E16.14044
G1 X53.266 Y71.192 E16.16748
G1 X52.921 Y71.845 E16.1945
G1 X52.508 Y72.457 E16.22151
G1 X52.031 Y73.021 E16.24853
G1 X51.496 Y73.529 E16.27552
G1 X50.909 Y73.977 E16.30254
G1 X50.277 Y74.359 E16.32956
G1 X49.608 Y74.671 E16.35657
G1 X48.909 Y74.908 E16.38357
G1 X48.188 Y75.068 E16.41059
G1 X47.454 Y75.149 E16.43761
G1 X47.071 Y75.16 E16.45163
G1 X27.071 Y75.16 E17.18335
G1 X26.334 Y75.12 E17.21035
G1 X25.605 Y75.001 E17.23738
G1 X24.894 Y74.803 E17.26438
G1 X24.208 Y74.53 E17.29139
G1 X23.555 Y74.184 E17.31843
G1 X22.944 Y73.77 E17.34543
G1 X22.381 Y73.292 E17.37245
G1 X21.873 Y72.756 E17.39947
G1 X21.427 Y72.168 E17.42647
G1 X21.046 Y71.535 E17.4535
G1 X20.736 Y70.865 E17.48051
G1 X20.5 Y70.165 E17.50754
G1 X20.341 Y69.444 E17.53455
G1 X20.261 Y68.71 E17.56156
G1 X20.251 Y68.34 E17.5751
G1 X20.251 Y48.34 E18.30683
G1 X20.291 Y47.603 E18.33383
G1 X20.41 Y46.874 E18.36086
G1 X20.608 Y46.163 E18.38786
G1 X20.881 Y45.477 E18.41487
G1 X21.227 Y44.824 E18.44191
G1 X21.641 Y44.213 E18.46891
G1 X22.119 Y43.65 E18.49593
G1 X22.655 Y43.142 E18.52295
G1 X23.243 Y42.696 E18.54995
G1 X23.876 Y42.315 E18.57698
G0 F6000 X24.291 Y42.598
G1 F1200 X24.95 Y42.323 E18.60311
G1 X25.636 Y42.123 E18.62925
G1 X26.34 Y42.002 E18.65538
G1 X27.071 Y41.96 E18.68217
G1 X47.034 Y41.96 E19.41254
G1 X47.747 Y42 E19.43867
G1 X48.451 Y42.119 E19.46479
G1 X49.137 Y42.317 E19.49091
G1 X49.797 Y42.59 E19.51704
G1 X50.423 Y42.934 E19.54318
G1 X51.006 Y43.347 E19.56932
G1 X51.539 Y43.822 E19.59544
G1 X52.016 Y44.354 E19.62158
G1 X52.43 Y44.936 E19.64771
G1 X52.776 Y45.56 E19.67381
G1 X53.051 Y46.219 E19.69994
G1 X53.251 Y46.905 E19.72608
G1 X53.372 Y47.609 E19.75222
G1 X53.414 Y48.328 E19.77857
G1 X53.451 Y68.328 E20.51029
G1 X53.412 Y69.041 E20.53642
G1 X53.294 Y69.746 E20.56257
G1 X53.098 Y70.432 E20.58867
G1 X52.827 Y71.093 E20.61481
G1 X52.483 Y71.719 E20.64094
G1 X52.071 Y72.302 E20.66706
G1 X51.597 Y72.836 E20.69318
G1 X51.066 Y73.314 E20.71932
G1 X50.485 Y73.729 E20.74544
G1 X49.862 Y74.077 E20.77155
G1 X49.203 Y74.353 E20.79769
G1 X48.518 Y74.554 E20.82381
G1 X47.814 Y74.677 E20.84996
G1 X47.071 Y74.72 E20.87719
G1 X27.071 Y74.72 E21.60891
G1 X26.358 Y74.68 E21.63504
G1 X25.654 Y74.561 E21.66116
G1 X24.968 Y74.363 E21.68728
G1 X24.308 Y74.09 E21.71341
G1 X23.682 Y73.746 E21.73954
G1 X23.099 Y73.333 E21.76568
G1 X22.566 Y72.858 E21.7918
G1 X22.089 Y72.326 E21.81795
G1 X21.675 Y71.744 E21.84408
G1 X21.329 Y71.12 E21.87018
G1 X21.054 Y70.461 E21.89631
G1 X20.854 Y69.775 E21.92245
G1 X20.733 Y69.071 E21.94858
G1 X20.691 Y68.34 E21.97537
G1 X20.691 Y48.34 E22.7071
G1 X20.731 Y47.627 E22.73322
G1 X20.85 Y46.923 E22.75934
G1 X21.048 Y46.237 E22.78547
G1 X21.321 Y45.577 E22.8116
G1 X21.665 Y44.951 E22.83773
G1 X22.078 Y44.368 E22.86387
G1 X22.553 Y43.835 E22.88999
G1 X23.085 Y43.358 E22.91613
G1 X23.667 Y42.944 E22.94226
G1 X24.291 Y42.598 E22.96837
G0 F6000 X24.088 Y43.204
G1 F1200 X24.703 Y42.893 E22.99358
G1 X25.349 Y42.655 E23.01877
G1 X26.019 Y42.494 E23.04398
G1 X26.703 Y42.411 E23.06919
G1 X27.071 Y42.4 E23.08266
G1 X47.034 Y42.4 E23.81303
G1 X47.722 Y42.44 E23.83824
G1 X48.401 Y42.559 E23.86346
G1 X49.061 Y42.756 E23.88866
G1 X49.694 Y43.029 E23.91388
G1 X50.291 Y43.373 E23.93909
G1 X50.844 Y43.783 E23.96428
G1 X51.346 Y44.255 E23.98949
G1 X51.79 Y44.782 E24.0147
G1 X52.17 Y45.357 E24.03991
G1 X52.481 Y45.972 E24.06513
G1 X52.719 Y46.618 E24.09032
G1 X52.88 Y47.288 E24.11553
G1 X52.963 Y47.972 E24.14074
G1 X52.974 Y48.329 E24.1538
G1 X53.011 Y68.329 E24.88553
G1 X52.972 Y69.017 E24.91074
G1 X52.854 Y69.696 E24.93595
G1 X52.658 Y70.356 E24.96114
G1 X52.387 Y70.99 E24.98637
G1 X52.044 Y71.588 E25.01159
G1 X51.635 Y72.142 E25.03678
G1 X51.164 Y72.645 E25.062
G1 X50.638 Y73.09 E25.0872
G1 X50.064 Y73.471 E25.11241
G1 X49.449 Y73.783 E25.13764
G1 X48.803 Y74.022 E25.16284
G1 X48.133 Y74.184 E25.18806
G1 X47.449 Y74.268 E25.21327
G1 X47.071 Y74.28 E25.22711
G1 X27.071 Y74.28 E25.95883
G1 X26.383 Y74.24 E25.98404
G1 X25.704 Y74.121 E26.00926
G1 X25.044 Y73.924 E26.03446
G1 X24.411 Y73.651 E26.05969
G1 X23.814 Y73.307 E26.08489
G1 X23.261 Y72.897 E26.11008
G1 X22.759 Y72.425 E26.13529
G1 X22.315 Y71.898 E26.1605
G1 X21.935 Y71.323 E26.18572
G1 X21.624 Y70.708 E26.21093
G1 X21.386 Y70.062 E26.23612
G1 X21.225 Y69.392 E26.26133
G1 X21.142 Y68.708 E26.28654
G1 X21.131 Y68.34 E26.30001
G1 X21.131 Y48.34 E27.03173
G1 X21.171 Y47.652 E27.05694
G1 X21.29 Y46.973 E27.08217
G1 X21.487 Y46.313 E27.10736
G1 X21.76 Y45.68 E27.13259
G1 X22.104 Y45.083 E27.15779
G1 X22.514 Y44.53 E27.18298
G1 X22.986 Y44.028 E27.20819
G1 X23.513 Y43.584 E27.2334
G1 X24.088 Y43.204 E27.25862
G0 F6000 X24.506 Y43.475
G1 F1200 X25.11 Y43.201 E27.28288
G1 X25.743 Y43.003 E27.30715
G1 X26.394 Y42.882 E27.33137
G1 X27.071 Y42.84 E27.35619
G1 X47.034 Y42.84 E28.08656
G1 X47.696 Y42.88 E28.11082
G1 X48.348 Y42.999 E28.13507
G1 X48.981 Y43.196 E28.15933
G1 X49.586 Y43.468 E28.1836
G1 X50.154 Y43.81 E28.20785
G1 X50.676 Y44.219 E28.23211
G1 X51.146 Y44.687 E28.25638
G1 X51.555 Y45.208 E28.28061
G1 X51.899 Y45.775 E28.30488
G1 X52.173 Y46.379 E28.32914
G1 X52.371 Y47.012 E28.35341
G1 X52.492 Y47.663 E28.37763
G1 X52.534 Y48.33 E28.40209
G1 X52.571 Y68.33 E29.13381
G1 X52.532 Y68.992 E29.15807
G1 X52.414 Y69.644 E29.18231
G1 X52.218 Y70.278 E29.20659
G1 X51.948 Y70.883 E29.23083
G1 X51.606 Y71.451 E29.25509
G1 X51.199 Y71.974 E29.27933
G1 X50.732 Y72.445 E29.3036
G1 X50.211 Y72.855 E29.32786
G1 X49.645 Y73.2 E29.35211
G1 X49.042 Y73.475 E29.37636
G1 X48.409 Y73.675 E29.40064
G1 X47.758 Y73.797 E29.42488
G1 X47.071 Y73.84 E29.45006
G1 X27.071 Y73.84 E30.18178
G1 X26.409 Y73.8 E30.20605
G1 X25.757 Y73.681 E30.23029
G1 X25.124 Y73.484 E30.25455
G1 X24.519 Y73.212 E30.27882
G1 X23.951 Y72.87 E30.30308
G1 X23.429 Y72.461 E30.32734
G1 X22.959 Y71.993 E30.3516
G1 X22.55 Y71.472 E30.37584
G1 X22.206 Y70.905 E30.4001
G1 X21.932 Y70.301 E30.42437
G1 X21.734 Y69.668 E30.44863
G1 X21.613 Y69.017 E30.47286
G1 X21.571 Y68.34 E30.49767
G1 X21.571 Y48.34 E31.2294
G1 X21.611 Y47.678 E31.25366
G1 X21.73 Y47.026 E31.27791
G1 X21.927 Y46.393 E31.30216
G1 X22.199 Y45.788 E31.32643
G1 X22.541 Y45.22 E31.35069
G1 X22.95 Y44.698 E31.37495
G1 X23.418 Y44.228 E31.39922
G1 X23.939 Y43.819 E31.42345
G1 X24.506 Y43.475 E31.44772
G0 F6000 X24.921 Y43.76
G1 F1200 X25.512 Y43.526 E31.47097
G1 X26.128 Y43.369 E31.49423
G1 X27.071 Y43.28 E31.52888
G1 X47.034 Y43.28 E32.25925
G1 X47.669 Y43.32 E32.28253
G1 X48.293 Y43.439 E32.30577
G1 X48.898 Y43.636 E32.32905
G1 X49.473 Y43.907 E32.35231
G1 X50.01 Y44.248 E32.37558
G1 X50.5 Y44.653 E32.39884
G1 X50.935 Y45.117 E32.42211
G1 X51.308 Y45.632 E32.44537
G1 X51.614 Y46.19 E32.46865
G1 X51.848 Y46.781 E32.49191
G1 X52.005 Y47.397 E32.51517
G1 X52.094 Y48.331 E32.54949
G1 X52.131 Y68.331 E33.28122
G1 X52.092 Y68.965 E33.30446
G1 X51.974 Y69.59 E33.32773
G1 X51.779 Y70.195 E33.35098
G1 X51.509 Y70.771 E33.37426
G1 X51.169 Y71.309 E33.39754
G1 X50.764 Y71.799 E33.4208
G1 X50.301 Y72.235 E33.44407
G1 X49.787 Y72.609 E33.46733
G1 X49.23 Y72.916 E33.49059
G1 X48.639 Y73.151 E33.51386
G1 X48.023 Y73.31 E33.53714
G1 X47.392 Y73.39 E33.56041
G1 X47.071 Y73.4 E33.57216
G1 X27.071 Y73.4 E34.30388
G1 X26.436 Y73.36 E34.32716
G1 X25.812 Y73.241 E34.3504
G1 X25.207 Y73.044 E34.37368
G1 X24.632 Y72.773 E34.39694
G1 X24.095 Y72.432 E34.42021
G1 X23.605 Y72.027 E34.44347
G1 X23.17 Y71.563 E34.46674
G1 X22.797 Y71.048 E34.49
G1 X22.491 Y70.49 E34.51329
G1 X22.257 Y69.899 E34.53654
G1 X22.1 Y69.283 E34.5598
G1 X22.011 Y68.34 E34.59445
G1 X22.011 Y48.34 E35.32618
G1 X22.051 Y47.705 E35.34945
G1 X22.17 Y47.081 E35.3727
G1 X22.367 Y46.476 E35.39597
G1 X22.638 Y45.901 E35.41923
G1 X22.979 Y45.364 E35.4425
G1 X23.384 Y44.874 E35.46576
G1 X23.848 Y44.439 E35.48903
G1 X24.363 Y44.066 E35.5123
G1 X24.921 Y43.76 E35.53558
G0 F6000 X24.784 Y44.326
G1 F1200 X25.33 Y44.06 E35.5578
G1 X25.907 Y43.869 E35.58004
G1 X26.504 Y43.755 E35.60227
G1 X27.071 Y43.72 E35.62306
G1 X47.034 Y43.72 E36.35343
G1 X47.64 Y43.76 E36.37565
G1 X48.236 Y43.879 E36.39788
G1 X48.811 Y44.075 E36.42011
G1 X49.355 Y44.346 E36.44234
G1 X49.86 Y44.685 E36.4646
G1 X50.315 Y45.087 E36.48681
G1 X50.713 Y45.546 E36.50904
G1 X51.048 Y46.053 E36.53127
G1 X51.314 Y46.599 E36.55349
G1 X51.505 Y47.176 E36.57573
G1 X51.619 Y47.773 E36.59796
G1 X51.654 Y48.331 E36.61842
G1 X51.691 Y68.331 E37.35014
G1 X51.652 Y68.938 E37.3724
G1 X51.534 Y69.534 E37.39462
G1 X51.339 Y70.109 E37.41684
G1 X51.07 Y70.654 E37.43907
G1 X50.731 Y71.159 E37.46133
G1 X50.33 Y71.615 E37.48354
G1 X49.872 Y72.014 E37.50577
G1 X49.366 Y72.35 E37.52799
G1 X48.819 Y72.616 E37.55024
G1 X48.243 Y72.809 E37.57247
G1 X47.646 Y72.924 E37.59471
G1 X47.071 Y72.96 E37.61579
G1 X27.071 Y72.96 E38.34751
G1 X26.465 Y72.92 E38.36973
G1 X25.869 Y72.801 E38.39197
G1 X25.294 Y72.605 E38.41419
