;FLAVOR:Marlin
;TIME:10288
;Filament used: 9.99336m
;Layer height: 0.2
;MINX:119
;MINY:94
;MINZ:0.2
;MAXX:181
;MAXY:166
;MAXZ:60
;Generated with Cura_SteamEngine 4.7.0
M140 S60
M105
M190 S60
M104 S200
M105
M109 S200
M82 ;absolute extrusion mode
; Ender 3 Custom Start G-code
G92 E0 ; Reset Extruder
G28 ; Home all axes
G1 Z2.0 F3000 ; Move Z Axis up little to prevent scratching of Heat Bed
G1 X0.1 Y20 Z0.3 F5000.0 ; Move to start position
G1 X0.1 Y200.0 Z0.3 F1500.0 E15 ; Draw the first line
G1 X0.4 Y200.0 Z0.3 F5000.0 ; Move to side a little
G1 X0.4 Y20 Z0.3 F1500.0 E30 ; Draw the second line
G92 E0 ; Reset Extruder
G1 Z2.0 F3000 ; Move Z Axis up little to prevent scratching of Heat Bed
G1 X5 Y20 Z0.3 F5000.0 ; Move over to prevent blob squish
G92 E0
G92 E0
G1 F3000 E-6.5
;LAYER_COUNT:300
;LAYER:0
M107
G0 F6000 X121.566 Y97.958 Z0.2
;TYPE:SKIRT
G1 F3000 E0
G1 F1200 X122.198 Y97.264 E0.03122
G1 X122.886 Y96.627 E0.0624
G1 X123.626 Y96.051 E0.09359
G1 X124.412 Y95.539 E0.12479
G1 X125.239 Y95.097 E0.15598
G1 X126.101 Y94.727 E0.18718
G1 X126.991 Y94.431 E0.21838
G1 X127.903 Y94.213 E0.24957
G1 X128.83 Y94.072 E0.28075
G1 X129.701 Y94.013 E0.30979
G1 X130.022 Y94.004 E0.32047
G1 X130.33 Y94 E0.33071
G1 X169.451 Y94.001 E1.63188
G1 X170.149 Y94.011 E1.6551
G1 X171.085 Y94.065 E1.68628
G1 X172.013 Y94.197 E1.71746
G1 X172.927 Y94.409 E1.74867
G1 X173.819 Y94.698 E1.77985
G1 X174.684 Y95.061 E1.81105
G1 X175.514 Y95.497 E1.84224
G1 X176.305 Y96.002 E1.87345
G1 X177.049 Y96.573 E1.90464
G1 X177.742 Y97.205 E1.93584
G1 X178.379 Y97.893 E1.96702
G1 X178.954 Y98.634 E1.99822
G1 X179.465 Y99.42 E2.0294
G1 X179.907 Y100.248 E2.06062
G1 X180.276 Y101.11 E2.09181
G1 X180.571 Y102 E2.12299
G1 X180.789 Y102.912 E2.15418
G1 X180.929 Y103.84 E2.18539
G1 X180.987 Y104.701 E2.2141
G1 X180.996 Y105.021 E2.22474
G1 X181 Y105.33 E2.23502
G1 X180.999 Y154.4 E3.8671
G1 X180.99 Y155.127 E3.89128
G1 X180.939 Y156.064 E3.92249
G1 X180.807 Y156.992 E3.95366
G1 X180.598 Y157.906 E3.98485
G1 X180.311 Y158.799 E4.01605
G1 X179.949 Y159.665 E4.04727
G1 X179.515 Y160.496 E4.07845
G1 X179.011 Y161.287 E4.10964
G1 X178.442 Y162.032 E4.14082
G1 X177.811 Y162.727 E4.17204
G1 X177.124 Y163.365 E4.20323
G1 X176.385 Y163.942 E4.23441
G1 X175.599 Y164.454 E4.26561
G1 X174.773 Y164.897 E4.29678
G1 X173.911 Y165.269 E4.32801
G1 X173.022 Y165.565 E4.35917
G1 X172.11 Y165.785 E4.39038
G1 X171.183 Y165.926 E4.42157
G1 X170.299 Y165.987 E4.45104
G1 X169.978 Y165.996 E4.46172
G1 X169.67 Y166 E4.47196
G1 X130.565 Y165.999 E5.7726
G1 X129.867 Y165.99 E5.79582
G1 X128.931 Y165.938 E5.827
G1 X128.002 Y165.806 E5.85821
G1 X127.088 Y165.596 E5.8894
G1 X126.195 Y165.309 E5.9206
G1 X125.33 Y164.946 E5.9518
G1 X124.499 Y164.512 E5.98298
G1 X123.708 Y164.008 E6.01417
G1 X122.963 Y163.438 E6.04537
G1 X122.269 Y162.807 E6.07657
G1 X121.632 Y162.12 E6.10773
G1 X121.055 Y161.38 E6.13894
G1 X120.543 Y160.594 E6.17014
G1 X120.1 Y159.767 E6.20134
G1 X119.729 Y158.906 E6.23253
G1 X119.433 Y158.016 E6.26372
G1 X119.214 Y157.104 E6.29492
G1 X119.073 Y156.177 E6.3261
G1 X119.013 Y155.288 E6.35574
G1 X119.004 Y154.955 E6.36682
G1 X119 Y154.658 E6.3767
G1 X119.001 Y105.525 E8.01087
G1 X119.01 Y104.86 E8.03299
G1 X119.063 Y103.924 E8.06417
G1 X119.195 Y102.995 E8.09538
G1 X119.406 Y102.081 E8.12658
G1 X119.694 Y101.189 E8.15776
G1 X120.057 Y100.324 E8.18896
G1 X120.492 Y99.493 E8.22015
G1 X120.996 Y98.703 E8.25132
G1 X121.566 Y97.958 E8.28252
G0 F6000 X121.961 Y98.111
G1 F1200 X122.589 Y97.439 E8.31311
G1 X123.274 Y96.823 E8.34375
G1 X124.01 Y96.27 E8.37437
G1 X124.791 Y95.782 E8.405
G1 X125.611 Y95.364 E8.43561
G1 X126.465 Y95.019 E8.46625
G1 X127.345 Y94.749 E8.49686
G1 X128.245 Y94.557 E8.52747
G1 X129.159 Y94.443 E8.55811
G1 X129.712 Y94.413 E8.57653
G1 X130.033 Y94.404 E8.58721
G1 X130.33 Y94.4 E8.59709
G1 X169.293 Y94.4 E9.893
G1 X170.143 Y94.411 E9.92127
G1 X171.062 Y94.464 E9.95189
G1 X171.973 Y94.597 E9.98251
G1 X172.869 Y94.808 E10.01313
G1 X173.743 Y95.096 E10.04374
G1 X174.59 Y95.459 E10.07438
G1 X175.401 Y95.894 E10.10499
G1 X176.171 Y96.398 E10.1356
G1 X176.895 Y96.967 E10.16623
G1 X177.567 Y97.597 E10.19687
G1 X178.182 Y98.282 E10.22749
G1 X178.735 Y99.018 E10.2581
G1 X179.222 Y99.799 E10.28872
G1 X179.639 Y100.62 E10.31934
G1 X179.984 Y101.474 E10.34998
G1 X180.253 Y102.354 E10.38058
G1 X180.445 Y103.255 E10.41122
G1 X180.558 Y104.168 E10.44182
G1 X180.587 Y104.712 E10.45994
G1 X180.596 Y105.032 E10.47059
G1 X180.6 Y105.33 E10.4805
G1 X180.599 Y154.395 E12.11241
G1 X180.59 Y155.122 E12.13659
G1 X180.539 Y156.041 E12.16721
G1 X180.408 Y156.953 E12.19785
G1 X180.198 Y157.849 E12.22846
G1 X179.912 Y158.724 E12.25908
G1 X179.551 Y159.571 E12.2897
G1 X179.117 Y160.383 E12.32032
G1 X178.615 Y161.155 E12.35095
G1 X178.047 Y161.88 E12.38158
G1 X177.419 Y162.553 E12.4122
G1 X176.735 Y163.169 E12.44281
G1 X176 Y163.723 E12.47343
G1 X175.22 Y164.212 E12.50405
G1 X174.4 Y164.631 E12.53467
G1 X173.547 Y164.977 E12.56529
G1 X172.667 Y165.248 E12.59592
G1 X171.767 Y165.441 E12.62653
G1 X170.853 Y165.556 E12.65717
G1 X170.288 Y165.587 E12.67599
G1 X169.967 Y165.596 E12.68667
G1 X169.67 Y165.6 E12.69655
G1 X130.57 Y165.599 E13.99702
G1 X129.872 Y165.59 E14.02024
G1 X128.953 Y165.538 E14.05085
G1 X128.042 Y165.407 E14.08147
G1 X127.146 Y165.197 E14.11207
G1 X126.271 Y164.91 E14.1427
G1 X125.424 Y164.548 E14.17334
G1 X124.612 Y164.114 E14.20396
G1 X123.841 Y163.612 E14.23456
G1 X123.116 Y163.044 E14.26519
G1 X122.443 Y162.415 E14.29583
G1 X121.828 Y161.731 E14.32643
G1 X121.274 Y160.996 E14.35704
G1 X120.786 Y160.215 E14.38767
G1 X120.367 Y159.395 E14.4183
G1 X120.021 Y158.542 E14.44891
G1 X119.751 Y157.662 E14.47953
G1 X119.558 Y156.761 E14.51018
G1 X119.444 Y155.848 E14.54078
G1 X119.413 Y155.277 E14.5598
G1 X119.404 Y154.944 E14.57088
G1 X119.4 Y154.658 E14.58039
G1 X119.401 Y105.531 E16.21436
G1 X119.41 Y104.866 E16.23648
G1 X119.462 Y103.946 E16.26713
G1 X119.594 Y103.035 E16.29775
G1 X119.805 Y102.139 E16.32836
G1 X120.092 Y101.264 E16.35899
G1 X120.455 Y100.418 E16.38961
G1 X120.889 Y99.606 E16.42023
G1 X121.392 Y98.835 E16.45085
G1 X121.961 Y98.111 E16.48148
G0 F6000 X122.355 Y98.267
G1 F1200 X122.981 Y97.617 E16.51149
G1 X123.662 Y97.024 E16.54153
G1 X124.394 Y96.494 E16.57158
G1 X125.169 Y96.031 E16.60161
G1 X125.982 Y95.638 E16.63164
G1 X126.827 Y95.318 E16.6617
G1 X127.696 Y95.075 E16.69171
G1 X128.584 Y94.909 E16.72176
G1 X129.723 Y94.813 E16.75977
G1 X130.044 Y94.804 E16.77045
G1 X130.33 Y94.8 E16.77997
G1 X169.293 Y94.8 E18.07588
G1 X170.137 Y94.811 E18.10396
G1 X171.039 Y94.864 E18.13401
G1 X171.932 Y94.996 E18.16403
G1 X172.81 Y95.207 E18.19407
G1 X173.666 Y95.495 E18.2241
G1 X174.493 Y95.857 E18.25413
G1 X175.285 Y96.292 E18.28418
G1 X176.036 Y96.794 E18.31423
G1 X176.739 Y97.361 E18.34427
G1 X177.389 Y97.988 E18.37431
G1 X177.981 Y98.67 E18.40434
G1 X178.511 Y99.401 E18.43438
G1 X178.973 Y100.177 E18.46441
G1 X179.366 Y100.99 E18.49445
G1 X179.684 Y101.835 E18.52448
G1 X179.927 Y102.705 E18.55452
G1 X180.092 Y103.593 E18.58456
G1 X180.187 Y104.723 E18.62228
G1 X180.196 Y105.043 E18.63292
G1 X180.2 Y105.33 E18.64247
G1 X180.199 Y154.39 E20.27421
G1 X180.19 Y155.117 E20.2984
G1 X180.139 Y156.019 E20.32844
G1 X180.008 Y156.913 E20.3585
G1 X179.799 Y157.791 E20.38851
G1 X179.513 Y158.648 E20.41856
G1 X179.152 Y159.476 E20.44861
G1 X178.72 Y160.268 E20.47861
G1 X178.219 Y161.02 E20.50867
G1 X177.653 Y161.724 E20.53871
G1 X177.028 Y162.375 E20.56873
G1 X176.347 Y162.969 E20.59878
G1 X175.616 Y163.5 E20.62883
G1 X174.842 Y163.964 E20.65885
G1 X174.029 Y164.358 E20.6889
G1 X173.185 Y164.678 E20.71892
G1 X172.315 Y164.923 E20.74898
G1 X171.428 Y165.089 E20.77899
G1 X170.277 Y165.187 E20.81741
G1 X169.956 Y165.196 E20.8281
G1 X169.67 Y165.2 E20.83761
G1 X130.575 Y165.199 E22.13791
G1 X129.877 Y165.19 E22.16113
G1 X128.976 Y165.139 E22.19115
G1 X128.082 Y165.007 E22.2212
G1 X127.204 Y164.798 E22.25122
G1 X126.347 Y164.511 E22.28128
G1 X125.52 Y164.15 E22.31129
G1 X124.727 Y163.717 E22.34135
G1 X123.976 Y163.216 E22.37137
G1 X123.272 Y162.65 E22.40142
G1 X122.621 Y162.024 E22.43145
G1 X122.028 Y161.343 E22.46149
G1 X121.498 Y160.612 E22.49152
G1 X121.034 Y159.837 E22.52156
G1 X120.64 Y159.024 E22.55161
G1 X120.32 Y158.18 E22.58163
G1 X120.076 Y157.31 E22.61169
G1 X119.91 Y156.422 E22.64173
G1 X119.813 Y155.267 E22.68028
G1 X119.804 Y154.934 E22.69136
G1 X119.8 Y154.658 E22.70054
G1 X119.801 Y105.536 E24.33435
G1 X119.81 Y104.871 E24.35647
G1 X119.862 Y103.969 E24.38652
G1 X119.994 Y103.076 E24.41654
G1 X120.204 Y102.198 E24.44657
G1 X120.491 Y101.341 E24.47663
G1 X120.853 Y100.514 E24.50665
G1 X121.286 Y99.722 E24.53668
G1 X121.788 Y98.971 E24.56672
G1 X122.355 Y98.267 E24.59679
G1 F3000 E18.09679
;MESH:??????-??????.STL
G0 F6000 X129.335 Y105.42
G0 X130.42 Y105.42
G0 X130.782 Y154.218
G0 X169.4 Y154.4
;TYPE:WALL-INNER
G1 F3000 E24.59679
G1 F1200 X130.6 Y154.4 E25.88728
G1 X130.6 Y105.6 E27.51037
G1 X169.4 Y105.6 E28.80087
G1 X169.4 Y154.4 E30.42396
G0 F6000 X169.8 Y154.8
;TYPE:WALL-OUTER
G1 F1200 X130.2 Y154.8 E31.74106
G1 X130.2 Y105.2 E33.39077
G1 X169.8 Y105.2 E34.70787
G1 X169.8 Y154.8 E36.35757
G0 F6000 X169.53 Y154.53
G0 X169.29 Y154.01
G0 X169.01 Y154.01
;TYPE:SKIN
G1 F1200 X130.99 Y154.01 E37.62212
G1 X130.99 Y105.99 E39.21927
G1 X169.01 Y105.99 E40.48382
G1 X169.01 Y154.01 E42.08097
G1 F3000 E35.58097
G0 F6000 X169.29 Y154.01
G0 X169.226 Y154.197
G0 X131.222 Y154.29
G0 X131.222 Y153.849
G1 F3000 E42.08097
G1 F1200 X131.149 Y153.776 E42.08441
G0 F6000 X131.149 Y153.21
G1 F1200 X131.787 Y153.849 E42.11444
G0 F6000 X132.353 Y153.849
G1 F1200 X131.149 Y152.645 E42.17107
G0 F6000 X131.149 Y152.079
G1 F1200 X132.919 Y153.849 E42.25433
G0 F6000 X133.484 Y153.849
G1 F1200 X131.149 Y151.513 E42.36418
G0 F6000 X131.149 Y150.948
G1 F1200 X134.05 Y153.849 E42.50064
G0 F6000 X134.616 Y153.849
G1 F1200 X131.149 Y150.382 E42.66371
G0 F6000 X131.149 Y149.816
G1 F1200 X135.181 Y153.849 E42.85339
G0 F6000 X135.747 Y153.849
G1 F1200 X131.149 Y149.251 E43.06967
G0 F6000 X131.149 Y148.685
G1 F1200 X136.313 Y153.849 E43.31257
G0 F6000 X136.878 Y153.849
G1 F1200 X131.149 Y148.119 E43.58206
G0 F6000 X131.149 Y147.554
G1 F1200 X137.444 Y153.849 E43.87816
G0 F6000 X138.01 Y153.849
G1 F1200 X131.149 Y146.988 E44.20088
G0 F6000 X131.149 Y146.422
G1 F1200 X138.575 Y153.849 E44.5502
G0 F6000 X139.141 Y153.849
G1 F1200 X131.149 Y145.857 E44.92612
G0 F6000 X131.149 Y145.291
G1 F1200 X139.707 Y153.849 E45.32866
G0 F6000 X140.273 Y153.849
G1 F1200 X131.149 Y144.725 E45.75783
G0 F6000 X131.149 Y144.159
G1 F1200 X140.838 Y153.849 E46.21359
G0 F6000 X141.404 Y153.849
G1 F1200 X131.149 Y143.594 E46.69596
G0 F6000 X131.149 Y143.028
G1 F1200 X141.97 Y153.849 E47.20494
G0 F6000 X142.535 Y153.849
G1 F1200 X131.149 Y142.462 E47.74053
G0 F6000 X131.149 Y141.897
G1 F1200 X143.101 Y153.849 E48.30271
G0 F6000 X143.667 Y153.849
G1 F1200 X131.149 Y141.331 E48.89152
G0 F6000 X131.149 Y140.765
G1 F1200 X144.232 Y153.849 E49.50693
G0 F6000 X144.798 Y153.849
G1 F1200 X131.149 Y140.2 E50.14894
G0 F6000 X131.149 Y139.634
G1 F1200 X145.364 Y153.849 E50.81757
G0 F6000 X145.929 Y153.849
G1 F1200 X131.149 Y139.068 E51.5128
G0 F6000 X131.149 Y138.503
G1 F1200 X146.495 Y153.849 E52.23463
G0 F6000 X147.061 Y153.849
G1 F1200 X131.149 Y137.937 E52.98308
G0 F6000 X131.149 Y137.371
G1 F1200 X147.626 Y153.849 E53.75813
G0 F6000 X148.192 Y153.849
G1 F1200 X131.149 Y136.806 E54.55978
G0 F6000 X131.149 Y136.24
G1 F1200 X148.758 Y153.849 E55.38805
G0 F6000 X149.323 Y153.849
G1 F1200 X131.149 Y135.674 E56.24292
G0 F6000 X131.149 Y135.109
G1 F1200 X149.889 Y153.849 E57.1244
G0 F6000 X150.455 Y153.849
G1 F1200 X131.149 Y134.543 E58.03249
G0 F6000 X131.149 Y133.977
G1 F1200 X151.021 Y153.849 E58.96721
G0 F6000 X151.586 Y153.849
G1 F1200 X131.149 Y133.411 E59.92853
G0 F6000 X131.149 Y132.846
G1 F1200 X152.152 Y153.849 E60.91644
G0 F6000 X152.718 Y153.849
G1 F1200 X131.149 Y132.28 E61.93098
G0 F6000 X131.149 Y131.714
G1 F1200 X153.283 Y153.849 E62.97212
G0 F6000 X153.849 Y153.849
G1 F1200 X131.149 Y131.149 E64.03986
G0 F6000 X131.149 Y130.583
G1 F1200 X154.415 Y153.849 E65.13422
G0 F6000 X154.98 Y153.849
G1 F1200 X131.149 Y130.017 E66.25518
G0 F6000 X131.149 Y129.452
G1 F1200 X155.546 Y153.849 E67.40274
G0 F6000 X156.112 Y153.849
G1 F1200 X131.149 Y128.886 E68.57693
G0 F6000 X131.149 Y128.32
G1 F1200 X156.677 Y153.849 E69.77771
G0 F6000 X157.243 Y153.849
G1 F1200 X131.149 Y127.755 E71.00509
G0 F6000 X131.149 Y127.189
G1 F1200 X157.809 Y153.849 E72.25909
G0 F6000 X158.374 Y153.849
G1 F1200 X131.149 Y126.623 E73.5397
G0 F6000 X131.149 Y126.058
G1 F1200 X158.94 Y153.849 E74.8469
G0 F6000 X159.506 Y153.849
G1 F1200 X131.149 Y125.492 E76.18073
G0 F6000 X131.149 Y124.926
G1 F1200 X160.072 Y153.849 E77.54118
G0 F6000 X160.637 Y153.849
G1 F1200 X131.149 Y124.36 E78.92823
G0 F6000 X131.149 Y123.795
G1 F1200 X161.203 Y153.849 E80.34187
G0 F6000 X161.769 Y153.849
G1 F1200 X131.149 Y123.229 E81.78215
G0 F6000 X131.149 Y122.663
G1 F1200 X162.334 Y153.849 E83.24902
G0 F6000 X162.9 Y153.849
G1 F1200 X131.149 Y122.098 E84.74249
G0 F6000 X131.149 Y121.532
G1 F1200 X163.466 Y153.849 E86.26258
G0 F6000 X164.031 Y153.849
G1 F1200 X131.149 Y120.966 E87.80927
G0 F6000 X131.149 Y120.401
G1 F1200 X164.597 Y153.849 E89.38256
G0 F6000 X165.163 Y153.849
G1 F1200 X131.149 Y119.835 E90.98248
G0 F6000 X131.149 Y119.269
G1 F1200 X165.728 Y153.849 E92.60899
G0 F6000 X166.294 Y153.849
G1 F1200 X131.149 Y118.704 E94.2621
G0 F6000 X131.149 Y118.138
G1 F1200 X166.86 Y153.849 E95.94184
G0 F6000 X167.425 Y153.849
G1 F1200 X131.149 Y117.572 E97.64817
G0 F6000 X131.149 Y117.007
G1 F1200 X167.991 Y153.849 E99.38111
G0 F6000 X168.557 Y153.849
G1 F1200 X131.149 Y116.441 E101.14067
G0 F6000 X131.149 Y115.875
G1 F1200 X168.849 Y153.575 E102.91396
G0 F6000 X168.849 Y153.01
G1 F1200 X131.149 Y115.31 E104.68725
G0 F6000 X131.149 Y114.744
G1 F1200 X168.849 Y152.444 E106.46054
G0 F6000 X168.849 Y151.878
G1 F1200 X131.149 Y114.178 E108.23384
G0 F6000 X131.149 Y113.612
G1 F1200 X168.849 Y151.313 E110.00715
G0 F6000 X168.849 Y150.747
G1 F1200 X131.149 Y113.047 E111.78044
G0 F6000 X131.149 Y112.481
G1 F1200 X168.849 Y150.181 E113.55374
G0 F6000 X168.849 Y149.616
G1 F1200 X131.149 Y111.915 E115.32705
G0 F6000 X131.149 Y111.35
G1 F1200 X168.849 Y149.05 E117.10034
G0 F6000 X168.849 Y148.484
G1 F1200 X131.149 Y110.784 E118.87364
G0 F6000 X131.149 Y110.218
G1 F1200 X168.849 Y147.918 E120.64693
G0 F6000 X168.849 Y147.353
G1 F1200 X131.149 Y109.653 E122.42022
G0 F6000 X131.149 Y109.087
G1 F1200 X168.849 Y146.787 E124.19351
G0 F6000 X168.849 Y146.221
G1 F1200 X131.149 Y108.521 E125.96681
G0 F6000 X131.149 Y107.956
G1 F1200 X168.849 Y145.656 E127.7401
G0 F6000 X168.849 Y145.09
G1 F1200 X131.149 Y107.39 E129.51339
G0 F6000 X131.149 Y106.824
G1 F1200 X168.849 Y144.524 E131.28668
G0 F6000 X168.849 Y143.959
G1 F1200 X131.149 Y106.259 E133.05998
G0 F6000 X131.606 Y106.15
G1 F1200 X168.849 Y143.393 E134.81177
G0 F6000 X168.849 Y142.827
G1 F1200 X132.171 Y106.15 E136.53697
G0 F6000 X132.737 Y106.15
G1 F1200 X168.849 Y142.262 E138.23557
G0 F6000 X168.849 Y141.696
G1 F1200 X133.303 Y106.15 E139.90754
G0 F6000 X133.868 Y106.15
G1 F1200 X168.849 Y141.13 E141.55292
G0 F6000 X168.849 Y140.565
G1 F1200 X134.434 Y106.15 E143.17169
G0 F6000 X135 Y106.15
G1 F1200 X168.849 Y139.999 E144.76385
G0 F6000 X168.849 Y139.433
G1 F1200 X135.565 Y106.15 E146.3294
G0 F6000 X136.131 Y106.15
G1 F1200 X168.849 Y138.867 E147.86833
G0 F6000 X168.849 Y138.302
G1 F1200 X136.697 Y106.15 E149.38066
G0 F6000 X137.262 Y106.15
G1 F1200 X168.849 Y137.736 E150.8664
G0 F6000 X168.849 Y137.17
G1 F1200 X137.828 Y106.15 E152.3255
G0 F6000 X138.394 Y106.15
G1 F1200 X168.849 Y136.605 E153.75801
G0 F6000 X168.849 Y136.039
G1 F1200 X138.959 Y106.15 E155.16393
G0 F6000 X139.525 Y106.15
G1 F1200 X168.849 Y135.473 E156.54321
G0 F6000 X168.849 Y134.908
G1 F1200 X140.091 Y106.15 E157.8959
G0 F6000 X140.656 Y106.15
G1 F1200 X168.849 Y134.342 E159.22199
G0 F6000 X168.849 Y133.776
G1 F1200 X141.222 Y106.15 E160.52146
G0 F6000 X141.788 Y106.15
